X:1
T:Title
%%score { ( 1 3 ) | ( 2 4 ) }
L:1/8
Q:1/4=126
M:6/4
K:Eb
V:1 treble nm="Grand Piano"
V:3 treble 
V:2 bass 
V:4 bass 
V:1
 [GB]3 [_G=A] [=GB]2 [_Ac]2 [GB]2 A2 | G4 G2 E4[K:bass] [E,B,D]2 | %2
w: Haldor~Lillenas * * * * *||
 [E,A,C]2[K:treble] [A,CE]2 [A,CE]2 [CEA]4 [=B,EA]2 | [B,EG]12 | %4
w: ||
 [DF]2 [_D=E]2 [=DF]2 [DA]2 [_EG]2 [DF]2 | G4 A2 .B6 | c2 d2 e2 B3 A G2 | [DF] [EG]3 [DF]2 [B,E]6 | %8
w: ||||
 [DF]2 [DF]2 [EG]2 [FA]3 [EG] [DF]2 | G2 G2 A2 .B6 | c2 c2 c2 B3 G G2 | %11
w: |||
[M:13/8] z z z z z2 [DB]-[DB]- [DB]3 z2 |[M:6/4] B3 A G2 G3 F E2 | A2 A2 c2 .[GB]6 | %14
w: |||
 c2 d2 e2 B3 A G2 |[M:10/4] [DF] [EG]3 [DF]2 [B,E]6 z8 |] %16
w: ||
V:2
 [E,E]3 [E,E] [E,E]2 [E,E]2 [E,E]2 [E,CE]2 | [E,B,E]4 [E,B,E]2 [E,G,C]4 G,,2 | %2
 A,,2 A,,2 A,,2 A,,4 A,,2 | E,12 | [B,,B,]2 [B,,B,]2 [B,,B,]2 [B,,F,]2 [B,,B,]2 [B,,B,]2 | %5
 [E,B,E]4 [E,F,E]2 .[E,G,E]6 | [A,E]2 [A,B,E]2 [A,CE]2 [G,E]3 [F,B,D] [E,B,E]2 | %7
 [B,,A,] [B,,B,]3 [B,,A,]2 [E,G,]6 | [B,,B,]2 [B,,B,]2 [B,,B,]2 [B,,B,]3 [B,,B,] [B,,B,]2 | %9
 [E,B,E]2 [E,B,E]2 [E,F,E]2 .[E,G,E]6 | [A,E]2 [A,E]2 [A,E]2 [E,G,E]3 [E,B,E] [E,B,E]2 | %11
[M:13/8] [C,F,]3 [C,F,] [F,C]2 .B,3 z z z2 | %12
[M:6/4] [E,G,E]3 [E,CE] [E,B,E]2 [E,B,E]3 [F,B,D] [G,B,]2 | [A,CE]2 [A,CE]2 [A,E]2 .[E,E]6 | %14
 [A,E]2 [A,B,E]2 [A,CE]2 [G,E]3 [F,B,D] [E,B,E]2 |[M:10/4] [B,,A,] [B,,B,]3 [B,,A,]2 [E,G,]6 z8 |] %16
V:3
 x12 | x10[K:bass] x2 | x2[K:treble] x10 | x12 | x12 | x12 | x12 | x12 | x12 | x12 | x12 | %11
[M:13/8] [E=A]3 [EG] [EA]2 z2 A,3 z2 |[M:6/4] x12 | x12 | x12 |[M:10/4] x20 |] %16
V:4
 x12 | x12 | x12 | x12 | x12 | x12 | x12 | x12 | x12 | x12 | x12 | %11
[M:13/8] z z z z z2 B,,-B,,- B,,3 z2 |[M:6/4] x12 | x12 | x12 |[M:10/4] x20 |] %16

